X:2710
T:La Flora
P:Miss Jane Douglas
C:Robert Mackintosh 1796
R:Jig (8x32)
B:RSCDS 27-10
Z:Anselm Lingnau <anselm@strathspey.org>
M:6/8
L:1/8
K:G
|:d/c/|"G"B3 GAB|"Am"A3 EFG|"D"FEF "D7/C"DEF|"G/B"GAB "D7/A"ABc|\
       "G"BAB GAB|"C"A3 EFG|
                            "D"FGA "D7"DEF|"G"G3 G2:|\
B|"G"G2 g gdB|"D7"ABc "G"GAB|"A7"A3 aba|"D"fga "D7"def|
  "G"G2 g gdB|Bcd "Am"efg|"G"dcB "D7"AGF|"G"G3 G2 B|\
  "G"G2 g gdB|"Em"Bcd "G/B"GAB|
                               "Am"A2 a aba|"D"fga "D7/C#"def|\
  "G/B"gab "D"afd|"Em"efg "Bm"fdB|"Am"edc "D7"BcA|"G"G3 G2|]
